images/LinkedIn-Logo.svg

<svg height="22" viewBox="0 0 23 22" width="23" xmlns="http://www.w3.org/2000/svg"><path d="m178.366 138.973c0 1.376-1.035 2.479001-2.699 2.479001h-.031c-1.602.000999-2.636-1.104001-2.636-2.479001 0-1.409 1.067-2.482001 2.698-2.482001 1.633-.000999 2.638 1.073001 2.668 2.482001zm-5.086 18.793h4.772v-14.353h-4.772zm16.484-14.689c-2.531 0-3.664 1.39-4.301 2.37v.046h-.031c.012-.014.023-.03.031-.046v-2.033h-4.771c.062 1.345 0 14.353 0 14.353h4.771v-8.016c0-.432.029-.855.157-1.164.346-.854 1.132-1.747 2.446-1.747 1.729 0 2.42 1.319 2.42 3.247v7.68h4.771v-8.229c.001-4.412-2.355-6.461-5.493-6.461z" fill="#fff" transform="translate(-173 -136)"/></svg>

<?xml version="1.0" encoding="UTF-8"?>
<svg width="23px" height="22px" viewBox="0 0 23 22" version="1.1" xmlns="http://www.w3.org/2000/svg" xmlns:xlink="http://www.w3.org/1999/xlink">
    <title>Shape</title>
    <g id="Page-1" stroke="none" stroke-width="1" fill="none" fill-rule="evenodd">
        <g id="Artboard" transform="translate(-173.000000, -136.000000)" fill="#FFFFFF" fill-rule="nonzero">
            <path d="M178.366,138.973 C178.366,140.349 177.331,141.452001 175.667,141.452001 L175.636,141.452001 C174.034,141.453 173,140.348 173,138.973 C173,137.564 174.067,136.490999 175.698,136.490999 C177.331,136.49 178.336,137.564 178.366,138.973 Z M173.28,157.766 L178.052,157.766 L178.052,143.413 L173.28,143.413 L173.28,157.766 Z M189.764,143.077 C187.233,143.077 186.1,144.467 185.463,145.447 L185.463,145.493 L185.432,145.493 C185.444,145.479 185.455,145.463 185.463,145.447 L185.463,143.414 L180.692,143.414 C180.754,144.759 180.692,157.767 180.692,157.767 L185.463,157.767 L185.463,149.751 C185.463,149.319 185.492,148.896 185.62,148.587 C185.966,147.733 186.752,146.84 188.066,146.84 C189.795,146.84 190.486,148.159 190.486,150.087 L190.486,157.767 L195.257,157.767 L195.257,149.538 C195.258,145.126 192.902,143.077 189.764,143.077 Z" id="Shape"></path>
        </g>
    </g>
</svg>
